X:1
T: Lord Charles Murray
C:Niel Gow
R:Strathspey
Q: 128
K:Dm
M:4/4
L:1/16
|:D2d2 F2d2 E3C EFGE|Dd3 Fd3 Dd3 Fd3|Ge3 Fd3 E3C EFGE|D2d2 F2d2 A2D2 F2d2|
D2d2 F2d2 E3C EFGE|D2d2 F2d2 D2d2 F2d2|G2e2 F2d2 E2C2 EFGE|D2d2 F2d2 A2D2 F2A2|
d3a fgaf g2c2 e2g2|d2a2 fgaf d2a2 f2d2|g2bg f2af g2c2 e2g2|f3d e3^c d2D2 F2A2|
d3a fgaf g2c2 e2g2|d2a2 fgaf d2a2 f2d2|g2bg f2af g2c2 e2g2|a3f g3e d2D2 F2A2:|
